packages/tokens/icons/pipeline/size16Px.svg

<svg viewBox="0 0 16 16" fill="none" xmlns="http://www.w3.org/2000/svg" width="1em" height="1em"><path d="M4.5 14.5V11.5C4.5 9.84315 5.84315 8.5 7.5 8.5V8.5H9.5C10.0523 8.5 10.5 8.05228 10.5 7.5V5.5C10.5 4.94772 10.0523 4.5 9.5 4.5H7.5H3.5M3.5 2.5H7.5H9.5C11.1569 2.5 12.5 3.84315 12.5 5.5V7.5C12.5 9.15685 11.1569 10.5 9.5 10.5H7.5V10.5C6.94772 10.5 6.5 10.9477 6.5 11.5V14.5" stroke="currentColor" stroke-linecap="round"/><path d="M3.5 5.5L3.5 1.5" stroke="currentColor" stroke-linecap="round"/><path d="M7.5 4.5L7.5 2.5" stroke="currentColor" stroke-linecap="round"/><path d="M7.5 10.5L7.5 8.5" stroke="currentColor" stroke-linecap="round"/><path d="M7.5 14.5L3.5 14.5" stroke="currentColor" stroke-linecap="round"/></svg>

<svg xmlns="http://www.w3.org/2000/svg" fill="none" viewBox="0 0 16 16" width="1em" height="1em"><path stroke="currentColor" stroke-linecap="round" d="M4.5 14.5v-3a3 3 0 0 1 3-3v0h2a1 1 0 0 0 1-1v-2a1 1 0 0 0-1-1h-6m0-2h6a3 3 0 0 1 3 3v2a3 3 0 0 1-3 3h-2v0a1 1 0 0 0-1 1v3m-3-9v-4m4 3v-2m0 8v-2m0 6h-4"/></svg>
